Numix-GalliumOS/16/status/smuxi-person-chat.svg

<?xml version="1.0" encoding="UTF-8" standalone="no"?>
<svg
   xmlns:dc="http://purl.org/dc/elements/1.1/"
   xmlns:cc="http://creativecommons.org/ns#"
   xmlns:rdf="http://www.w3.org/1999/02/22-rdf-syntax-ns#"
   xmlns:svg="http://www.w3.org/2000/svg"
   xmlns="http://www.w3.org/2000/svg"
   xmlns:sodipodi="http://sodipodi.sourceforge.net/DTD/sodipodi-0.dtd"
   xmlns:inkscape="http://www.inkscape.org/namespaces/inkscape"
   width="16"
   height="16"
   viewBox="0 0 16 16"
   id="svg13191"
   version="1.1"
   inkscape:version="0.91 r"
   sodipodi:docname="smuxi-person-chat.svg">
  <metadata
     id="metadata13203">
    <rdf:RDF>
      <cc:Work
         rdf:about="">
        <dc:format>image/svg+xml</dc:format>
        <dc:type
           rdf:resource="http://purl.org/dc/dcmitype/StillImage" />
      </cc:Work>
    </rdf:RDF>
  </metadata>
  <sodipodi:namedview
     pagecolor="#ffffff"
     bordercolor="#666666"
     borderopacity="1"
     objecttolerance="10"
     gridtolerance="10"
     guidetolerance="10"
     inkscape:pageopacity="0"
     inkscape:pageshadow="2"
     inkscape:window-width="640"
     inkscape:window-height="480"
     id="namedview13201" />
  <defs
     id="defs13193" />
  <path
     d="m 7.103313,2 1.7933746,0 c 2.6948554,0 2.6373144,2.6247127 2.6373144,2.6247127 l 0,2.2517263 C 11.534002,7.7329246 10,9.5 10,9.5 L 10,11 13.5,12.498848 13.5,14 2.5,14 2.5,12.498848 6,11 6,9.5 C 6,9.5 4.4564081,7.7329246 4.4659989,6.876439 l 0,-2.2517263 C 4.4659989,4.6247127 4.4084579,2 7.103313,2 z"
     fill="#b8abbe"
     id="path13199" />
</svg>

<svg xmlns="http://www.w3.org/2000/svg" viewBox="0 0 16 16">
 <path d="m 7.103 2 1.793 0 c 2.695 0 2.637 2.625 2.637 2.625 l 0 2.252 c 0 0.856 -1.534 2.624 -1.534 2.624 l 0 1.5 3.5 1.499 0 1.501 -11 0 0 -1.501 3.5 -1.499 0 -1.5 c 0 0 -1.544 -1.767 -1.534 -2.624 l 0 -2.252 c 0 0 -0.058 -2.625 2.637 -2.625 z" style="fill:#b8abbe"/>
</svg>
